X: 1
T: Eunyssagh Vona
Z: manxygirl
S: https://thesession.org/tunes/13105#setting22558
R: reel
M: 4/4
L: 1/8
K: Gmaj
D2|G2 GA B2 AG | FGAB c2 BA | G2 GB d2 BG | FADA FADA |
G2 GA B2 AG | FGAB c2 BA | BdBG AcAF | G2 GF GABc |
d2 dc Bc d2 | c2 cB AB c2 | B2 BA GA B2 | AGFE DEFD |
B2 BA GA B2 | c2 cB AB c2 | BAGB AGFA | G2 GF G2 ||
